X: 42609
T: Whinny Hill, The
R: reel
M: 4/4
K: Aminor
A2cA BcdB|ca~a2 aged|(3Bcd ed BcdB|cBAc BGEG|
A2cA BcdB|ca~a2 aged|eAce fedc|(3Bcd BG A3z:|
|:~A3B c3d|eaag ~a3b|c'bac' bage|fedf edBG|
~A3B c3d|eaag a2ag|eAce dBGB|A2AG A3z:|

